packages/icon/src/svg/user.icon.svg

<svg viewBox="0 0 24 24" xmlns="http://www.w3.org/2000/svg"><path d="M12 12c-2.206 0-4-1.794-4-4s1.794-4 4-4 4 1.794 4 4-1.794 4-4 4zm0-6c-1.103 0-2 .896-2 2 0 1.103.897 2 2 2s2-.897 2-2c0-1.104-.897-2-2-2zm8 14H4v-1c0-3.533 3.29-6 8-6s8 2.467 8 6v1zM6.159 18h11.683c-.598-1.808-2.833-3-5.841-3s-5.244 1.192-5.842 3z" /></svg>

<?xml version="1.0" encoding="UTF-8"?>
<svg width="24px" height="24px" viewBox="0 0 24 24" version="1.1" xmlns="http://www.w3.org/2000/svg" xmlns:xlink="http://www.w3.org/1999/xlink">
    <!-- Generator: Sketch 46.1 (44463) - http://www.bohemiancoding.com/sketch -->
    <title>Icon/user.icon</title>
    <desc>Created with Sketch.</desc>
    <defs>
        <path d="M12,12 C9.794,12 8,10.206 8,8 C8,5.794 9.794,4 12,4 C14.206,4 16,5.794 16,8 C16,10.206 14.206,12 12,12 Z M12,6 C10.897,6 10,6.896 10,8 C10,9.103 10.897,10 12,10 C13.103,10 14,9.103 14,8 C14,6.896 13.103,6 12,6 Z M20,20 L4,20 L4,19 C4,15.467 7.29,13 12,13 C16.71,13 20,15.467 20,19 L20,20 Z M6.159,18 L17.842,18 C17.244,16.192 15.009,15 12.001,15 C8.993,15 6.757,16.192 6.159,18 Z" id="path-1"></path>
    </defs>
    <g id="Symbols" stroke="none" stroke-width="1" fill="none" fill-rule="evenodd">
        <g id="Icon/user">
            <mask id="mask-2" fill="white">
                <use xlink:href="#path-1"></use>
            </mask>
            <use id="Combined-Shape" fill="#000000" fill-rule="nonzero" xlink:href="#path-1"></use>
            <g id="Color/Neutral/White" mask="url(#mask-2)" fill="#FFFFFF">
                <rect id="222222-Fill" x="0" y="0" width="24" height="24"></rect>
            </g>
        </g>
    </g>
</svg>
